img/toolbar/panel_datagrid.svg

<?xml version="1.0" encoding="UTF-8" standalone="no"?>
<svg
   xmlns:dc="http://purl.org/dc/elements/1.1/"
   xmlns:cc="http://creativecommons.org/ns#"
   xmlns:rdf="http://www.w3.org/1999/02/22-rdf-syntax-ns#"
   xmlns:svg="http://www.w3.org/2000/svg"
   xmlns="http://www.w3.org/2000/svg"
   xmlns:xlink="http://www.w3.org/1999/xlink"
   xmlns:sodipodi="http://sodipodi.sourceforge.net/DTD/sodipodi-0.dtd"
   xmlns:inkscape="http://www.inkscape.org/namespaces/inkscape"
   height="24"
   width="24"
   version="1.1"
   id="svg18604"
   sodipodi:docname="panel_datagrid.svg"
   inkscape:version="0.92.3 (2405546, 2018-03-11)">
  <metadata
     id="metadata18610">
    <rdf:RDF>
      <cc:Work
         rdf:about="">
        <dc:format>image/svg+xml</dc:format>
        <dc:type
           rdf:resource="http://purl.org/dc/dcmitype/StillImage" />
        <dc:title></dc:title>
      </cc:Work>
    </rdf:RDF>
  </metadata>
  <defs
     id="defs18608">
    <linearGradient
       inkscape:collect="always"
       xlink:href="#a"
       id="linearGradient19155"
       gradientUnits="userSpaceOnUse"
       gradientTransform="matrix(0.60054644,0,0,0.54860338,1.5665609,1.7442749)"
       x1="11.026465"
       y1="19.060492"
       x2="20.822304"
       y2="9.776938" />
    <linearGradient
       inkscape:collect="always"
       xlink:href="#b"
       id="linearGradient19157"
       gradientUnits="userSpaceOnUse"
       gradientTransform="matrix(0.60191641,0,0,0.61319434,1.5501219,1.6344504)"
       x1="1"
       y1="3.49841"
       x2="22.999999"
       y2="3.49841" />
    <linearGradient
       inkscape:collect="always"
       xlink:href="#c"
       id="linearGradient19159"
       gradientUnits="userSpaceOnUse"
       gradientTransform="matrix(0.60191641,0,0,0.61319434,1.5501219,1.6344504)"
       x1=".99982"
       y1="3.49841"
       x2="23.000179"
       y2="3.49841" />
  </defs>
  <sodipodi:namedview
     pagecolor="#ffffff"
     bordercolor="#666666"
     borderopacity="1"
     objecttolerance="10"
     gridtolerance="10"
     guidetolerance="10"
     inkscape:pageopacity="0"
     inkscape:pageshadow="2"
     inkscape:window-width="1920"
     inkscape:window-height="1137"
     id="namedview18606"
     showgrid="true"
     inkscape:zoom="27.812867"
     inkscape:cx="7.7053317"
     inkscape:cy="13.237574"
     inkscape:window-x="-8"
     inkscape:window-y="-8"
     inkscape:window-maximized="1"
     inkscape:current-layer="svg18604"
     inkscape:snap-global="false">
    <inkscape:grid
       type="xygrid"
       id="grid7891" />
  </sodipodi:namedview>
  <linearGradient
     id="a"
     gradientTransform="matrix(.5428268 0 0 .5427415 -.513933 11.48806)"
     gradientUnits="userSpaceOnUse"
     x1="11.026465"
     x2="20.822304"
     y1="19.060492"
     y2="9.776938">
    <stop
       offset="0"
       stop-color="#c7c7c7"
       id="stop18538" />
    <stop
       offset="1"
       stop-color="#fff"
       id="stop18540" />
  </linearGradient>
  <linearGradient
     id="b"
     gradientTransform="matrix(.5440651 0 0 .6066423 -.528792 11.379409)"
     gradientUnits="userSpaceOnUse"
     x1="1"
     x2="22.999999"
     y1="3.49841"
     y2="3.49841">
    <stop
       offset="0"
       stop-color="#4c407b"
       id="stop18543" />
    <stop
       offset="1"
       stop-color="#6ccdf6"
       id="stop18545" />
  </linearGradient>
  <linearGradient
     id="c"
     gradientTransform="matrix(.5440651 0 0 .6066423 -.528792 11.379409)"
     gradientUnits="userSpaceOnUse"
     x1=".99982"
     x2="23.000179"
     y1="3.49841"
     y2="3.49841">
    <stop
       offset="0"
       stop-color="#443289"
       id="stop18548" />
    <stop
       offset="1"
       stop-color="#4aa7cf"
       id="stop18550" />
  </linearGradient>
  <linearGradient
     id="d"
     gradientUnits="userSpaceOnUse"
     x1="-3.325194"
     x2="8.674806"
     y1="25.566127"
     y2="14.566127">
    <stop
       offset="0"
       stop-color="#cd3232"
       id="stop18553" />
    <stop
       offset="1"
       stop-color="#e08e8e"
       id="stop18555" />
  </linearGradient>
  <rect
     height="19.943659"
     rx="0.94669127"
     ry="0.8798725"
     width="15.991806"
     x="2.4654708"
     y="2.5654366"
     id="rect18558"
     style="fill:url(#linearGradient19155);stroke:#979494;stroke-width:0.99999994;stroke-linecap:round;stroke-linejoin:round;stroke-miterlimit:4;stroke-dasharray:none;stroke-opacity:1" />
  <path
     sodipodi:nodetypes="sssccss"
     d="M 3.3999344,2.5522906 H 17.519187 c 0.525663,0 0.94885,0.4386268 0.94885,0.9834675 V 4.53961 H 2.4510827 V 3.5357581 c 0,-0.5448407 0.4231879,-0.9834675 0.9488517,-0.9834675 z"
     id="path18560"
     style="fill:url(#linearGradient19157);stroke:url(#linearGradient19159);stroke-width:0.99999994;stroke-linecap:round;stroke-miterlimit:4;stroke-dasharray:none"
     inkscape:connector-curvature="0" />
  <g
     id="g18566"
     style="fill:#fcfdff;stroke:#f1fcff;stroke-width:0.98740441;stroke-linecap:round;stroke-linejoin:round"
     transform="matrix(1.1063316,0,0,1.0108005,6.1351412,-9.8678619)">
    <path
       style="stroke-width:0.98740441"
       d="m 20.597353,3.6294897 c 0,0.3257331 -0.284371,0.589792 -0.63516,0.589792 -0.35079,0 -0.635161,-0.2640589 -0.635161,-0.589792 0,-0.3257332 0.284371,-0.5897921 0.635161,-0.5897921 0.350789,0 0.63516,0.2640589 0.63516,0.5897921 z"
       transform="matrix(0.5999964,0,0,0.5999019,-3.654395,11.270488)"
       id="path18562"
       inkscape:connector-curvature="0" />
    <path
       style="stroke-width:0.98740441"
       d="m 20.597353,3.6294897 c 0,0.3257331 -0.284371,0.589792 -0.63516,0.589792 -0.35079,0 -0.635161,-0.2640589 -0.635161,-0.589792 0,-0.3257332 0.284371,-0.5897921 0.635161,-0.5897921 0.350789,0 0.63516,0.2640589 0.63516,0.5897921 z"
       transform="matrix(0.5999964,0,0,0.5999019,-1.798829,11.270488)"
       id="path18564"
       inkscape:connector-curvature="0" />
  </g>
  <path
     id="path3734"
     style="display:inline;fill:none;stroke:#818eaf;stroke-width:1px;stroke-linecap:butt;stroke-linejoin:miter;stroke-opacity:1"
     d="M 16.510532,21.004671 16.483372,5.9979437 m -3.97284,1 V 19.997943 M 8.5105314,6.9979437 V 19.997943 m -4,-12.9999993 V 19.997943 m -0.5,-13.4999993 H 16.010532 M 4.0105314,20.504671 H 16.010532"
     sodipodi:nodetypes="cccccccccccc"
     inkscape:connector-curvature="0" />
  <path
     id="path7965"
     style="fill:none;fill-rule:evenodd;stroke:#818eaf;stroke-width:1px;stroke-linecap:butt;stroke-linejoin:miter;stroke-opacity:1"
     d="m 4.5,8.5214588 h 12 m -12,2.9707742 h 12 m -12,2.993266 h 12 m -12,3.042695 h 12"
     inkscape:connector-curvature="0"
     sodipodi:nodetypes="cccccccc" />
</svg>

<svg height="24" width="24" xmlns="http://www.w3.org/2000/svg" xmlns:xlink="http://www.w3.org/1999/xlink">
<linearGradient id="a" gradientTransform="matrix(.6 0 0 .55 1.57 1.74)" gradientUnits="userSpaceOnUse" x1="11.03" x2="20.82" y1="19.06" y2="9.78">
<stop offset="0" stop-color="#c7c7c7"/>
<stop offset="1" stop-color="#fff"/>
</linearGradient>
<linearGradient id="b" gradientTransform="matrix(.6 0 0 .61 1.55 1.63)" gradientUnits="userSpaceOnUse" x1="1" x2="23" y1="3.5" y2="3.5">
<stop offset="0" stop-color="#4c407b"/>
<stop offset="1" stop-color="#6ccdf6"/>
</linearGradient>
<linearGradient id="c" gradientTransform="matrix(.6 0 0 .61 1.55 1.63)" gradientUnits="userSpaceOnUse" x1="1" x2="23" y1="3.5" y2="3.5">
<stop offset="0" stop-color="#443289"/>
<stop offset="1" stop-color="#4aa7cf"/>
</linearGradient>
<g stroke-linecap="round">
<rect fill="url(#a)" height="19.94" rx=".95" ry=".88" stroke="#979494" stroke-linejoin="round" width="15.99" x="2.47" y="2.57"/>
<path d="m3.4 2.55h14.12c.53 0 .95.44.95.98v1.01h-16.02v-1c0-.54.42-.98.95-.98z" fill="url(#b)" stroke="url(#c)"/>
<g fill="#fcfdff" stroke="#f1fcff" stroke-linejoin="round" stroke-width=".99" transform="matrix(1.11 0 0 1.01 6.14 -9.87)">
<path d="m20.6 3.63c0 .33-.28.59-.64.59-.35 0-.64-.26-.64-.59s.28-.59.64-.59c.35 0 .64.26.64.59z" transform="matrix(.6 0 0 .6 -3.65 11.27)"/>
<path d="m20.6 3.63c0 .33-.28.59-.64.59-.35 0-.64-.26-.64-.59s.28-.59.64-.59c.35 0 .64.26.64.59z" transform="matrix(.6 0 0 .6 -1.8 11.27)"/>
</g>
</g>
<path d="m16.51 21-.03-15m-3.97 1v13m-4-13v13m-4-13v13m-.5-13.5h12m-12 14h12" fill="none" stroke="#818eaf"/>
<path d="m4.5 8.52h12m-12 2.97h12m-12 2.99h12m-12 3.04h12" fill="none" stroke="#818eaf"/>
</svg>
